data/styles/clear/style-clear/symbols/grocery-m.svg

<svg height="24" viewBox="0 0 24 24" width="24"><g fill="none" fill-rule="evenodd"><circle cx="12" cy="12" fill="#fff" opacity=".6" r="12"/><circle cx="12" cy="12" fill="#8c5f93" r="11"/><path d="m9.92018508 15.6923077c-.6362059 0-1.15095431.5192308-1.15095431 1.1538461 0 .6346154.51474841 1.1538462 1.15095431 1.1538462.63620592 0 1.15673802-.5192308 1.15673802-1.1538462 0-.6346153-.5205321-1.1538461-1.15673802-1.1538461zm-3.92018508-9.27398213c0 .27876648.23137207.50475135.50195503.50475135h.69804497l1.8 5.53846158c-.63725163 0-1.15384615.6703535-1.15384615 1.4980838v-.226937c0 .8273689.67299373 1.4980839 1.49867253 1.4980839h6.94812142c.2800372 0 .5070522-.2140925.5070522-.5047513v.0864258c0-.2787665-.2316845-.5047514-.5023606-.5047514h-7.02604805c-.27744609 0-.50236058-.2140925-.50236058-.5047513v.0864257c0-.2787664.22903788-.5047513.49506924-.5047513h6.38877689c.989858 0 .901066-.2534743 1.05-.5538448l1.2249231-4.1427706c.048-.084.072-.186.072-.288 0-.33-.27-.6-.4615385-.55384615h-9.0124615l-.726-1.84615385h-1.30814209c-.27164562 0-.49185791.21409255-.49185791.50475135zm9.4586466 9.27398213c-.6362059 0-1.1509543.5192308-1.1509543 1.1538461 0 .6346154.5147484 1.1538462 1.1509543 1.1538462s1.156738-.5192308 1.156738-1.1538462c0-.6346153-.5205321-1.1538461-1.156738-1.1538461z" fill="#fff"/></g></svg>

<svg width="24" height="24" viewBox="0 0 24 24">
  <g fill="none" fill-rule="evenodd">
    <circle cx="12" cy="12" r="12" fill="#FFF" opacity=".6"/>
    <circle cx="12" cy="12" r="11" fill="#8C5F93"/>
    <path fill="#FFF" d="M9.92018508,15.6923077 C9.28397918,15.6923077 8.76923077,16.2115385 8.76923077,16.8461538 C8.76923077,17.4807692 9.28397918,18 9.92018508,18 C10.556391,18 11.0769231,17.4807692 11.0769231,16.8461538 C11.0769231,16.2115385 10.556391,15.6923077 9.92018508,15.6923077 L9.92018508,15.6923077 Z M6,6.41832557 C6,6.69709205 6.23137207,6.92307692 6.50195503,6.92307692 L7.2,6.92307692 L9,12.4615385 L9,12.4615385 C8.36274837,12.4615385 7.84615385,13.131892 7.84615385,13.9596223 L7.84615385,13.7326853 C7.84615385,14.5600542 8.51914758,15.2307692 9.34482638,15.2307692 L16.2929478,15.2307692 C16.572985,15.2307692 16.8,15.0166767 16.8,14.7260179 L16.8,14.8124437 C16.8,14.5336772 16.5683155,14.3076923 16.2976394,14.3076923 L9.27159135,14.3076923 C8.99414526,14.3076923 8.76923077,14.0935998 8.76923077,13.802941 L8.76923077,13.8893667 C8.76923077,13.6106003 8.99826865,13.3846154 9.26430001,13.3846154 L15.6530769,13.3846154 C16.6429349,13.3846154 16.5541429,13.1311411 16.7030769,12.8307706 L17.928,8.688 C17.976,8.604 18,8.502 18,8.4 C18,8.07 17.73,7.8 17.5384615,7.84615385 L8.526,7.84615385 L7.8,6 L6.49185791,6 C6.22021229,6 6,6.21409255 6,6.50475135 L6,6.41832557 Z M15.4586466,15.6923077 C14.8224407,15.6923077 14.3076923,16.2115385 14.3076923,16.8461538 C14.3076923,17.4807692 14.8224407,18 15.4586466,18 C16.0948525,18 16.6153846,17.4807692 16.6153846,16.8461538 C16.6153846,16.2115385 16.0948525,15.6923077 15.4586466,15.6923077 L15.4586466,15.6923077 Z"/>
  </g>
</svg>
